X:1
T:The Jolly Tinker (4)
M:4/4
L:1/4
K:G
 D| D G G G| G B B3/2 G/2| F G A B| c2 B c| d/2d/2 G G G| G/2G/2 G F G|\
 A D D E| =F3/2 E/2 F G| G3/2 E/2C/2 C3/2| B, C D E| =F E D C| D2 G3/2 =F/2|\
 G3 z| B, C D E| =F E D C| D2 G3/2 =F/2| G3|
